src/assets/icon/exp.svg

<svg width="100" height="100" viewBox="0 0 100 100" fill="none" xmlns="http://www.w3.org/2000/svg">
<g id="exp">
<path id="EXP" d="M30.4446 90.184H38.7966V92.752H30.4446V90.184ZM30.6846 97.384H40.1646V100H27.5646V83.2H39.8286V85.816H30.6846V97.384ZM41.4152 100L48.4952 90.256V92.608L41.7512 83.2H45.2792L50.2952 90.16L48.8552 90.184L53.8232 83.2H57.2072L50.5112 92.44V90.184L57.6392 100H54.0392L48.7592 92.608H50.1752L44.9672 100H41.4152ZM59.5333 100V83.2H66.4453C67.9333 83.2 69.2053 83.44 70.2613 83.92C71.3333 84.4 72.1573 85.088 72.7333 85.984C73.3093 86.88 73.5973 87.944 73.5973 89.176C73.5973 90.408 73.3093 91.472 72.7333 92.368C72.1573 93.264 71.3333 93.952 70.2613 94.432C69.2053 94.912 67.9333 95.152 66.4453 95.152H61.2613L62.6533 93.688V100H59.5333ZM62.6533 94.024L61.2613 92.512H66.3013C67.6773 92.512 68.7093 92.224 69.3973 91.648C70.1013 91.056 70.4533 90.232 70.4533 89.176C70.4533 88.104 70.1013 87.28 69.3973 86.704C68.7093 86.128 67.6773 85.84 66.3013 85.84H61.2613L62.6533 84.304V94.024Z" fill="url(#paint0_linear_2250_88117)"/>
<g id="EXP_2">
<path id="Vector 388" d="M81.3293 0V13.9227H51.9369C51.9369 13.9227 42.6551 13.9227 35.307 20.1106C22.9156 30.5454 21.3843 51.0499 21.3843 51.0499C21.3843 51.0499 13.628 32.3593 24.0915 15.0829C33.2266 -0.000188839 50.7767 0 50.7767 0H81.3293Z" fill="url(#paint1_linear_2250_88117)"/>
<path id="Vector 389" d="M81.3287 43.3148V28.6187H36.08C36.08 28.6187 27.4947 33.6655 27.4946 46.5187C27.4945 68.8398 41.1076 70 41.1076 70H81.3287V57.2375H48.0689C48.0689 57.2375 42.0955 57.2646 37.7737 53.4101C33.452 49.5555 33.3728 43.3148 33.3728 43.3148H81.3287Z" fill="url(#paint2_linear_2250_88117)"/>
</g>
</g>
<defs>
<linearGradient id="paint0_linear_2250_88117" x1="22.6626" y1="91.5001" x2="75.9146" y2="91.5001" gradientUnits="userSpaceOnUse">
<stop stop-color="#AB750F"/>
<stop offset="0.516" stop-color="#D8A956"/>
<stop offset="1" stop-color="#AB750F"/>
</linearGradient>
<linearGradient id="paint1_linear_2250_88117" x1="15.6865" y1="25.5251" x2="82.4764" y2="25.5252" gradientUnits="userSpaceOnUse">
<stop stop-color="#AB750F"/>
<stop offset="0.516" stop-color="#D8A956"/>
<stop offset="1" stop-color="#AB750F"/>
</linearGradient>
<linearGradient id="paint2_linear_2250_88117" x1="24.978" y1="49.3095" x2="82.3135" y2="49.3095" gradientUnits="userSpaceOnUse">
<stop stop-color="#AB750F"/>
<stop offset="0.516" stop-color="#D8A956"/>
<stop offset="1" stop-color="#AB750F"/>
</linearGradient>
</defs>
</svg>

<svg xmlns="http://www.w3.org/2000/svg" width="100" height="100" fill="none" xmlns:v="https://vecta.io/nano"><path d="M30.445 90.184h8.352v2.568h-8.352v-2.568zm.24 7.2h9.48V100h-12.6V83.2h12.264v2.616h-9.144v11.568zM41.415 100l7.08-9.744v2.352L41.751 83.2h3.528l5.016 6.96-1.44.024 4.968-6.984h3.384l-6.696 9.24v-2.256L57.639 100h-3.6l-5.28-7.392h1.416L44.967 100h-3.552zm18.118 0V83.2h6.912c1.488 0 2.76.24 3.816.72 1.072.48 1.896 1.168 2.472 2.064s.864 1.96.864 3.192-.288 2.296-.864 3.192-1.4 1.584-2.472 2.064c-1.056.48-2.328.72-3.816.72h-5.184l1.392-1.464V100h-3.12zm3.12-5.976l-1.392-1.512h5.04c1.376 0 2.408-.288 3.096-.864.704-.592 1.056-1.416 1.056-2.472 0-1.072-.352-1.896-1.056-2.472-.688-.576-1.72-.864-3.096-.864h-5.04l1.392-1.536v9.72z" fill="url(#A)"/><path d="M81.329 0v13.923H51.937s-9.282 0-16.63 6.188C22.916 30.545 21.384 51.05 21.384 51.05s-7.756-18.691 2.707-35.967C33.227 0 50.777 0 50.777 0h30.553z" fill="url(#B)"/><path d="M81.329 43.315V28.619H36.08s-8.585 5.047-8.585 17.9C27.495 68.84 41.108 70 41.108 70h40.221V57.238h-33.26s-5.973.027-10.295-3.827-4.401-10.095-4.401-10.095h47.956z" fill="url(#C)"/><defs><linearGradient id="A" x1="22.663" y1="91.5" x2="75.915" y2="91.5" gradientUnits="userSpaceOnUse"><stop stop-color="#ab750f"/><stop offset=".516" stop-color="#d8a956"/><stop offset="1" stop-color="#ab750f"/></linearGradient><linearGradient id="B" x1="15.687" y1="25.525" x2="82.476" y2="25.525" gradientUnits="userSpaceOnUse"><stop stop-color="#ab750f"/><stop offset=".516" stop-color="#d8a956"/><stop offset="1" stop-color="#ab750f"/></linearGradient><linearGradient id="C" x1="24.978" y1="49.31" x2="82.314" y2="49.31" gradientUnits="userSpaceOnUse"><stop stop-color="#ab750f"/><stop offset=".516" stop-color="#d8a956"/><stop offset="1" stop-color="#ab750f"/></linearGradient></defs></svg>
